X: 34796
T: Road To Skye, The
R: jig
M: 6/8
K: Gmajor
|:GAG DB,D|GBd e2d|gBB BAB|cBc E2D|
GAG DB,D|GBd e2d|gBB BAB|cAF G2D:|
|:GBd GBd|GBd cAF|GBd eag|fdc d2e/f/|
gbg faf|ege d2B|cBc Adc|BAF G2D:|

